_includes/icons/ios-mysql.svg

<svg fill="#666" height="50" viewBox="0 0 50 50" width="50" xmlns="http://www.w3.org/2000/svg"><path d="m6.667969 4c-1.460938 0-2.667969 1.207031-2.667969 2.667969v36.664062c0 1.460938 1.207031 2.667969 2.667969 2.667969h36.664062c1.460938 0 2.667969-1.203125 2.667969-2.667969v-36.664062c0-1.460938-1.203125-2.667969-2.667969-2.667969zm0 2h36.664062c.371094 0 .667969.296875.667969.667969v36.664062c0 .371094-.296875.667969-.667969.667969h-36.664062c-.371094 0-.667969-.296875-.667969-.667969v-36.664062c0-.371094.296875-.667969.667969-.667969zm25.511719 13.589844c-2.132813 0-3.167969 2.234375-3.167969 4.730469 0 3.035156 1.136719 4.789062 3 4.789062.085937 0 .238281.082031.453125.191406.710937.414063 1.632812.882813 2.457031 1.214844l.652344-1.367187c-.597656-.222657-1.265625-.429688-1.875-.691407v-.066406c.894531-.472656 1.4375-1.90625 1.4375-4.207031 0-2.125-.640625-4.59375-2.957031-4.59375zm-5.644532.023437c-2 0-3.023437 1.246094-3.023437 2.734375 0 .84375.496094 1.820313 1.804687 2.589844.808594.511719 1.234375.84375 1.234375 1.519531 0 .605469-.425781 1.046875-1.304687 1.046875-.542969 0-1.195313-.152343-1.578125-.359375l-.273438 1.558594c.3125.183594 1.066407.375 1.835938.375 1.875 0 3.164062-1.117187 3.164062-2.8125 0-.980469-.464843-1.917969-1.730468-2.660156-1.035157-.609375-1.320313-.898438-1.320313-1.449219 0-.5.382813-.96875 1.179688-.96875.539062 0 .949218.152344 1.222656.316406l.300781-1.554687c-.285156-.167969-.886719-.335938-1.511719-.335938zm-16.921875.085938-.695312 9.296875h1.605469l.15625-3.230469c.058593-.921875.113281-2.09375.144531-3.101562h.039062c.144532 1.007812.398438 2.164062.585938 2.910156l.792969 3.269531h1.320312l.824219-3.324219c.183594-.71875.441406-1.863281.613281-2.855468h.042969c-.03125.992187.039062 2.191406.082031 3.074218l.171875 3.257813h1.660156l-.582031-9.296875h-1.960937l-.753907 3.363281c-.253906 1.175781-.464843 2.222656-.609375 3.257813h-.027343c-.171875-1.050782-.410157-2.082032-.679688-3.257813l-.769531-3.363281zm26.699219 0v9.296875h4.320313v-1.53125h-2.457032v-7.765625zm-4.21875 1.460937c.824219 0 1.09375 1.367188 1.09375 3.105469 0 1.929688-.3125 3.265625-1.09375 3.265625-.824219 0-1.164062-1.335937-1.152344-3.222656 0-1.753906.382813-3.148438 1.152344-3.148438zm-14.519531 1.085938 1.902344 6.25c.027343.082031.054687.164062.054687.25 0 .09375-.039062.164062-.097656.289062-.128906.289063-.324219.566407-.582031.800782-.285157.25-.597657.453125-.925782.566406l.570313 1.558594c.28125-.082032.996094-.402344 1.578125-1.0625.75-.867188 1.207031-2.179688 1.546875-3.449219l1.421875-5.199219h-1.820313l-.582031 3.53125c-.058594.371094-.113281.757813-.171875 1.105469h-.027344c-.058593-.359375-.113281-.734375-.183593-1.132813l-.683594-3.503906v-.003906z"/></svg>

<svg xmlns="http://www.w3.org/2000/svg" viewBox="0 0 50 50" width="50" height="50" fill="#666"><path d="M 6.667969 4 C 5.207031 4 4 5.207031 4 6.667969 L 4 43.332031 C 4 44.792969 5.207031 46 6.667969 46 L 43.332031 46 C 44.792969 46 46 44.796875 46 43.332031 L 46 6.667969 C 46 5.207031 44.796875 4 43.332031 4 Z M 6.667969 6 L 43.332031 6 C 43.703125 6 44 6.296875 44 6.667969 L 44 43.332031 C 44 43.703125 43.703125 44 43.332031 44 L 6.667969 44 C 6.296875 44 6 43.703125 6 43.332031 L 6 6.667969 C 6 6.296875 6.296875 6 6.667969 6 Z M 32.179688 19.589844 C 30.046875 19.589844 29.011719 21.824219 29.011719 24.320313 C 29.011719 27.355469 30.148438 29.109375 32.011719 29.109375 C 32.097656 29.109375 32.25 29.191406 32.464844 29.300781 C 33.175781 29.714844 34.097656 30.183594 34.921875 30.515625 L 35.574219 29.148438 C 34.976563 28.925781 34.308594 28.71875 33.699219 28.457031 L 33.699219 28.390625 C 34.59375 27.917969 35.136719 26.484375 35.136719 24.183594 C 35.136719 22.058594 34.496094 19.589844 32.179688 19.589844 Z M 26.535156 19.613281 C 24.535156 19.613281 23.511719 20.859375 23.511719 22.347656 C 23.511719 23.191406 24.007813 24.167969 25.316406 24.9375 C 26.125 25.449219 26.550781 25.78125 26.550781 26.457031 C 26.550781 27.0625 26.125 27.503906 25.246094 27.503906 C 24.703125 27.503906 24.050781 27.351563 23.667969 27.144531 L 23.394531 28.703125 C 23.707031 28.886719 24.460938 29.078125 25.230469 29.078125 C 27.105469 29.078125 28.394531 27.960938 28.394531 26.265625 C 28.394531 25.285156 27.929688 24.347656 26.664063 23.605469 C 25.628906 22.996094 25.34375 22.707031 25.34375 22.15625 C 25.34375 21.65625 25.726563 21.1875 26.523438 21.1875 C 27.0625 21.1875 27.472656 21.339844 27.746094 21.503906 L 28.046875 19.949219 C 27.761719 19.78125 27.160156 19.613281 26.535156 19.613281 Z M 9.613281 19.699219 L 8.917969 28.996094 L 10.523438 28.996094 L 10.679688 25.765625 C 10.738281 24.84375 10.792969 23.671875 10.824219 22.664063 L 10.863281 22.664063 C 11.007813 23.671875 11.261719 24.828125 11.449219 25.574219 L 12.242188 28.84375 L 13.5625 28.84375 L 14.386719 25.519531 C 14.570313 24.800781 14.828125 23.65625 15 22.664063 L 15.042969 22.664063 C 15.011719 23.65625 15.082031 24.855469 15.125 25.738281 L 15.296875 28.996094 L 16.957031 28.996094 L 16.375 19.699219 L 14.414063 19.699219 L 13.660156 23.0625 C 13.40625 24.238281 13.195313 25.285156 13.050781 26.320313 L 13.023438 26.320313 C 12.851563 25.269531 12.613281 24.238281 12.34375 23.0625 L 11.574219 19.699219 Z M 36.3125 19.699219 L 36.3125 28.996094 L 40.632813 28.996094 L 40.632813 27.464844 L 38.175781 27.464844 L 38.175781 19.699219 Z M 32.09375 21.160156 C 32.917969 21.160156 33.1875 22.527344 33.1875 24.265625 C 33.1875 26.195313 32.875 27.53125 32.09375 27.53125 C 31.269531 27.53125 30.929688 26.195313 30.941406 24.308594 C 30.941406 22.554688 31.324219 21.160156 32.09375 21.160156 Z M 17.574219 22.246094 L 19.476563 28.496094 C 19.503906 28.578125 19.53125 28.660156 19.53125 28.746094 C 19.53125 28.839844 19.492188 28.910156 19.433594 29.035156 C 19.304688 29.324219 19.109375 29.601563 18.851563 29.835938 C 18.566406 30.085938 18.253906 30.289063 17.925781 30.402344 L 18.496094 31.960938 C 18.777344 31.878906 19.492188 31.558594 20.074219 30.898438 C 20.824219 30.03125 21.28125 28.71875 21.621094 27.449219 L 23.042969 22.25 L 21.222656 22.25 L 20.640625 25.78125 C 20.582031 26.152344 20.527344 26.539063 20.46875 26.886719 L 20.441406 26.886719 C 20.382813 26.527344 20.328125 26.152344 20.257813 25.753906 L 19.574219 22.25 L 19.574219 22.246094 Z"/></svg>
